X:1
T:Title
%%score { ( 1 3 ) | 2 }
L:1/8
Q:1/4=100
M:4/4
K:Bb
V:1 treble nm="Grand Piano"
V:3 treble 
V:2 bass 
V:1
 [B,D][CE][DF][DF] [EG]2 [DF]2 | [B,D][CE][DF][DB] [EA]4 | CDEF A2 G2 | FGEF D4 | %4
w: J.~W.~Henderson * * * * *||||
 D[CE][DF][DF] [EG]2 [DF]2 | [DB][FB][Ac][_Ad] [Ge]4 | [Ge][Ge][Fd][Fc] [Ff][Fd][FB]G | %7
w: |||
 F2 c2 [DB]4 | z4 [Fd]2 [Dd]2 | z4 [Ae]4 | z4 [df]2 [Bd]2 | [c=e][ce][Be][Be] f-[Cf] _e2 | %12
w: |||||
 z4 [Fd]2 [Dd]2 | z4 [Ae]4 | [Ae][ce][ce][eg] [df][Bd][Af][Ge] | [Fe]2 [ce]2 z4 |] %16
w: ||||
V:2
 [B,,F,][B,,F,][B,,B,][B,,B,] [B,,B,]2 [B,,B,]2 | [B,,F,][B,,F,][B,,F,][B,,F,] [C,F,]4 | %2
 [F,A,][F,B,][F,A,C][F,A,E] [F,CE]2 [F,CE]2 | [F,CE][F,CE][F,A,C][F,A,C] [B,,B,]4 | %4
 [B,,F,B,][B,,F,][B,,B,][B,,B,] [B,,B,]2 [B,,B,]2 | [B,,F,][D,F,][C,F,][B,,B,] [E,B,]4 | %6
 [E,B,][E,B,][F,B,][E,B,] [D,B,][B,,B,][D,B,][E,B,E] | [F,A,E]2 [F,A,E]2 [B,,B,]4 | %8
 [B,,B,][F,B,][F,B,][F,B,] .[B,,B,]2 .[B,,B,]2 | [B,,B,][F,B,][B,,B,][F,B,] F,,F, F,2 | %10
 F,,[F,A,][F,A,][F,A,] .[B,,B,]2 .[B,,B,]2 | [C,,C,][=E,G,C][E,G,C][E,G,C] F,,[F,A,] [F,A,C]2 | %12
 [B,,B,][F,B,][F,B,][F,B,] B,,F,B,,F, | [B,,B,][F,B,][B,,B,][F,B,] F,,F, F,2 | %14
 F,,[F,A,C][F,A,C][F,A,C] B,,[F,B,]F,,[F,C] | F,,F,F,,F, [B,,F,B,]4 |] %16
V:3
 x8 | x8 | x8 | x8 | x8 | x8 | x8 | x8 | [Fd][Bd][Ad][Gd] z [F,B,] z [F,B,] | %9
 [Fd][Bd][Fd][Bd] z A, A,2 | [Ae][ce][ce][eg] z [F,B,] z [F,B,] | z4 A4 | %12
 [Fd][Bd][Ad][Gd] z B, z B, | [Fd][Bd][Fd][Bd] z [A,C] [A,C]2 | x8 | z [A,C] z [A,C] [Bd]4 |] %16

